X: 1024
T: Hicaz Seyir
C: Erol Bingöl
O: Turkey
F: http://compmusic.upf.edu/node/140
N: hicaz--seyir--duyek--1--erol_bingol
N: makam= hicaz
N: form= seyir
N: usul= duyek = 8/4
M: 8/4
L: 1/16
K: C _7/8B ^f ^c 
Q: 1/4=120
%%MIDI tuningsystem comma53
A2 d6 e2 dc d4  | cd e4 dc cB BA A4  | \
w:   |   | 
d2 e4 g2 ^3/4f2 d2 e2 c2  | 
w:   | 
d6 e^3/4f ag ^2/4fe d4  | g2 a4 =b2 a2 g2 ^2/4f2 e2  | \
w:   |   | 
^3/4f2 g4 a2 ^1/4f3e d4  | 
w:   | 
c2 d4 e2 c2 B2 A2 G2  | d3c cB BA A8  | |


